X:1
T:Title
%%score { ( 1 3 4 ) | ( 2 5 ) }
L:1/8
Q:1/4=100
M:2/4
K:A
V:1 treble nm="Grand Piano"
V:3 treble 
V:4 treble 
V:2 bass 
V:5 bass 
V:1
 C>[CE] [CA][Ec] | [DB]2 [CA]2 | F>F AF | [CE]4 | C>[CE] [CA][Ec] | [EB]2 [B,EG]2 | %6
w: C.~Austin~Miles * * *||||||
 [B,^DB]>[CDA] [B,EG][A,DF] | E4 | D>E FG | [=CF]2 [^CE]2 | D>E GF | [CE]4 | [CE]>[CA] [Ec][=Ge] | %13
w: |||||||
 [Fe][Fd] [FA][^EB] | [Ec]2 [DB]2 | [CA]4 | c4 | [CEB]2 [CEA]2 | z2 .G2 | G4 | d3 B | %21
w: ||||||||
 [Gc]2 [B,DGB]2 | .[A,CEA]2 .[A,CEA]2 | c4 | e4 | [Fd]2 [Ec]2 | BF FF | [Fd]2 [Fc]>[FB] | A2 c2 | %29
w: ||||||||
 B2 G2 | [CA]4 |] %31
w: ||
V:2
 [A,,A,]>[A,,A,] [A,,A,][A,,A,] | [E,G,]2 [A,,A,]2 | [D,A,D]>[D,A,D] [D,F,D][D,A,D] | [A,,A,]4 | %4
 [A,,A,]>[A,,A,] [A,,A,][A,,A,] | [E,G,]2 E,2 | B,,>B,, B,,B,, | [E,G,]4 | %8
 [E,G,B,]>[E,G,B,] [E,G,D][E,B,D] | [A,,A,]2 [A,,A,]2 | [E,G,B,]>[E,G,B,] [E,B,D][E,G,D] | %11
 [A,,A,]4 | [A,,A,]>[A,,A,] [A,,A,][C,A,] | [D,A,][D,A,] [D,A,][D,A,] | [E,A,]2 [E,G,]2 | %15
 [A,,A,]4 | [A,,A,]2 [A,,A,]2 | [A,,A,]2 [A,,A,]2 | z F A,,2 | [E,B,D][E,B,] [E,B,]2 | %20
 [E,B,D]2 [E,B,D]2 | [E,B,D]2 E,2 | z G z[K:treble] B | [A,,A,][A,,A,] [A,,A,]2 | %24
 [A,,A,]2 [A,,A,]2 | [A,,A,]2 [A,,A,]2 | [D,F,D][D,B,D] [D,B,D][D,B,D] | [B,,B,]2 [C,^A,]>[D,B,] | %28
 [E,CE]2 [E,A,E]2 | [E,G,D]2 [E,B,D]2 | [A,,A,]4 |] %31
V:3
 x4 | x4 | x4 | x4 | x4 | x4 | x4 | x4 | x4 | x4 | x4 | x4 | x4 | x4 | x4 | x4 | [CE]2 z A | x4 | %18
 .[CE]2 [A,CE]-[A,CEA] | z D D2 | G2 G2 | x4 | x4 | [CE][CE] [CE]2 | E2 z c | x4 | x4 | x4 | x4 | %29
 x4 | x4 |] %31
V:4
 x4 | x4 | x4 | x4 | x4 | x4 | x4 | x4 | x4 | x4 | x4 | x4 | x4 | x4 | x4 | x4 | z2 [CE]2 | x4 | %18
 x4 | x4 | x4 | x4 | x4 | x4 | z2 E2 | x4 | x4 | x4 | x4 | x4 | x4 |] %31
V:5
 x4 | x4 | x4 | x4 | x4 | x4 | x4 | x4 | x4 | x4 | x4 | x4 | x4 | x4 | x4 | x4 | x4 | x4 | %18
 [A,,A,]2 z2 | x4 | x4 | x4 | A,,2 A,,2[K:treble] | x4 | x4 | x4 | x4 | x4 | x4 | x4 | x4 |] %31

